X:1
T: Howard
C:
R:Reel
Q: 232
K:A
M:4/4
L:1/8
A2 ((3cBA) ce ae|fa ea da ca|B2 ((3dcB) df ba|((3gag) ((3fe^d) ((3efe) ((3=dcB)|A2 ((3cBA) ce ae|fa ea da ca|B2 ((3dcB) df ba|((3gfe) ((3dcB) A2 A2|
F2 ((3GF^E) FA ca|gf ^eg fg a2|F2 ((3GF^E) FA ca|gf ^eg f2 f2|F2 ((3GF^E) FA ca|gf ^eg fg a2|F2 ((3GF^E) FA ca|gf ^eg f2 f2|
E2 ((3GFE) EB eG|A2 ((3BAG) Ac ac|B2 ((3^dcB) df ba|((3gag) ((3egf) ((3efe) ((3dcB)|E2 ((3GFE) EB eG|A2 ((3BAG) Ac ac|B2 ((3^dcB//) df ba|((3gag) ((3egf) ((3efe) ((3dcB)|
A2 ((3cBA) ce ae|fa ea da ca|B2 ((3dcB) df ba|((3gag) ((3fe^d) ((3efe) ((3=dcB)|A2 ((3cBA) ce ae|fa ea da ca|B2 ((3dcB) df ba|((3gfe) ((3dcB) A2 A2||
